X: 18417
T: Hunter's Purse, The
R: reel
M: 4/4
K: Adorian
|:eA A2 AGEF|G2 AF GE D2|c3d e3d|(3Bcd ef gedg|
eA A2 AGEF|G2 AF GE D2|cBcd e3d|cABG A3g:|
|:ea a2 agef|g2 af ge d2|c3d e3d|(3Bcd ef gedg|
ea a2 agef|g2 af gedB|cBcd e3d|cABG A3g:|

